packages/icon/src/svg/eye-off.icon.svg

<svg width="24" height="24" viewBox="0 0 24 24" fill="none" xmlns="http://www.w3.org/2000/svg">
<path fill-rule="evenodd" clip-rule="evenodd" d="M19.6478 20.8679L3.63214 4.8523C3.43744 4.65759 3.12195 4.65686 2.92645 4.85083L2.35632 5.41651L2.35492 5.41797C2.15967 5.61316 2.15967 5.92981 2.35492 6.125L4.19 7.96008C2.78998 9.19006 1.69 10.7401 1 12.5001C2.72998 16.8901 7 20.0001 12 20.0001C13.28 20.0001 14.5 19.8 15.65 19.42L18.3751 22.1451L18.3765 22.1465C18.5724 22.3411 18.889 22.3397 19.0836 22.1438L19.6492 21.5736C19.8431 21.3782 19.8425 21.0626 19.6478 20.8679ZM14.83 13.5001C14.94 13.1901 15 12.8501 15 12.5001C15 10.8433 13.6569 9.50012 12 9.50012C11.65 9.50012 11.31 9.56018 11 9.67017L14.83 13.5001ZM23 12.5001C22.18 14.5801 20.79 16.3801 19 17.6901L17.58 16.2601C18.94 15.3201 20.06 14.0402 20.82 12.5001C19.17 9.14014 15.76 7.00012 12 7.00012C10.91 7.00012 9.83997 7.18018 8.83997 7.50012L7.29999 5.97009C8.73999 5.3501 10.33 5.00012 12 5.00012C17 5.00012 21.27 8.11011 23 12.5001ZM12 18.0001C8.23999 18.0001 4.83002 15.8601 3.17999 12.5001C3.77997 11.2802 4.60999 10.2201 5.59998 9.37012L9 12.7802C9.14996 14.2101 10.29 15.3501 11.72 15.5001L14 17.7902C13.37 17.9302 12.69 18.0001 12 18.0001Z" fill="white"/>
</svg>

<svg aria-label="eye off icon" viewBox="0 0 24 24"><path fill-rule="evenodd" clip-rule="evenodd" d="M19.648 20.868L3.632 4.852a.5.5 0 00-.706-.001l-.57.566-.001.001a.5.5 0 000 .707L4.19 7.96C2.79 9.19 1.69 10.74 1 12.5 2.73 16.89 7 20 12 20c1.28 0 2.5-.2 3.65-.58l2.725 2.725.002.002a.5.5 0 00.707-.003l.565-.57a.5.5 0 00-.001-.706zM14.83 13.5A3 3 0 0011 9.67l3.83 3.83zm8.17-1a11.79 11.79 0 01-4 5.19l-1.42-1.43a9.861 9.861 0 003.24-3.76A9.821 9.821 0 0012 7c-1.09 0-2.16.18-3.16.5L7.3 5.97C8.74 5.35 10.33 5 12 5c5 0 9.27 3.11 11 7.5zM12 18c-3.76 0-7.17-2.14-8.82-5.5.6-1.22 1.43-2.28 2.42-3.13L9 12.78a3.064 3.064 0 002.72 2.72L14 17.79c-.63.14-1.31.21-2 .21z"/></svg>
